X:168 
T:Prayer Is Better Than a Tune,A 
F:file ID: cre.5/168prayer
S:Padraig O'Keeffe MS
B:CRE5.002 (Is Fearr Paidir nÃÂÃÂÃÂÃÂ¡ Port)
N:This tune is basically "Kilfenora #2" (1) in the key of A (2) with the parts reversed. I've appended a D version with the parts in the usual order. (I'm trying to get musicians to call
this tune "Jerry Lynch's" after one of the founding members of the Kilfenora Ceili Band who passed away a few years ago.)
M:6/8
Q:160
R:jig
K:A
e|a2a Ace|Ace a2a|agf gec|edB B2A|
a2a Ace|Ace a2a|agf gec|edB A2:|
B|c2d efe|efe ecA|d2e f2f|fed faa|
c2d efe|efe efg|agf gec|edB A2:|

%%%

